resources/dark/zen.svg

<svg fill="none" height="16" viewBox="0 0 16 16" width="16" xmlns="http://www.w3.org/2000/svg" xmlns:xlink="http://www.w3.org/1999/xlink"><linearGradient id="a" gradientUnits="userSpaceOnUse" x1="7" x2="7" y1="3" y2="13"><stop offset="0" stop-color="#5a7ef7"/><stop offset="1" stop-color="#a067f7"/></linearGradient><g fill="url(#a)"><path d="m11.7144 3-9.7144.37204 1.32722 2.10519 3.89228-.10065-2.04876 3.02479 1.3168 2.08863z"/><path d="m2.3166 13 9.6834-.802-1.4369-2.0439-3.88239.273 1.88656-3.11208-1.4256-2.02788z"/></g></svg>

<svg width="16" height="16" viewBox="0 0 16 16" fill="none" xmlns="http://www.w3.org/2000/svg">
<path d="M11.7144 3L2 3.37204L3.32722 5.47723L7.2195 5.37658L5.17074 8.40137L6.48754 10.49L11.7144 3Z" fill="url(#paint0_linear)"/>
<path d="M2.3166 13L12 12.198L10.5631 10.1541L6.68071 10.4271L8.56727 7.31502L7.14167 5.28714L2.3166 13Z" fill="url(#paint1_linear)"/>
<defs>
<linearGradient id="paint0_linear" x1="7" y1="3" x2="7" y2="13" gradientUnits="userSpaceOnUse">
<stop stop-color="#5A7EF7"/>
<stop offset="1" stop-color="#A067F7"/>
</linearGradient>
<linearGradient id="paint1_linear" x1="7" y1="3" x2="7" y2="13" gradientUnits="userSpaceOnUse">
<stop stop-color="#5A7EF7"/>
<stop offset="1" stop-color="#A067F7"/>
</linearGradient>
</defs>
</svg>
